images/youtube.svg

<svg xmlns="http://www.w3.org/2000/svg" width="24" height="24" viewBox="0 0 24 24"><path d="M10 9.333l5.333 2.662-5.333 2.672v-5.334zm14-4.333v14c0 2.761-2.238 5-5 5h-14c-2.761 0-5-2.239-5-5v-14c0-2.761 2.239-5 5-5h14c2.762 0 5 2.239 5 5zm-4 7c-.02-4.123-.323-5.7-2.923-5.877-2.403-.164-7.754-.163-10.153 0-2.598.177-2.904 1.747-2.924 5.877.02 4.123.323 5.7 2.923 5.877 2.399.163 7.75.164 10.153 0 2.598-.177 2.904-1.747 2.924-5.877z"/></svg>

<?xml version="1.0" encoding="utf-8"?>
<!-- Generator: Adobe Illustrator 25.4.1, SVG Export Plug-In . SVG Version: 6.00 Build 0)  -->
<svg version="1.1" id="Layer_1" xmlns="http://www.w3.org/2000/svg" xmlns:xlink="http://www.w3.org/1999/xlink" x="0px" y="0px"
	 viewBox="0 0 24 24" style="enable-background:new 0 0 24 24;" xml:space="preserve">
<style type="text/css">
	.st0{fill:#FFFFFF;}
</style>
<path class="st0" d="M10,9.3l5.3,2.7L10,14.7V9.3z M24,5v14c0,2.8-2.2,5-5,5H5c-2.8,0-5-2.2-5-5V5c0-2.8,2.2-5,5-5h14
	C21.8,0,24,2.2,24,5z M20,12c0-4.1-0.3-5.7-2.9-5.9C14.7,6,9.3,6,6.9,6.1C4.3,6.3,4,7.9,4,12c0,4.1,0.3,5.7,2.9,5.9
	c2.4,0.2,7.8,0.2,10.2,0C19.7,17.7,20,16.1,20,12z"/>
</svg>
